bernoullicharts/bernstein_0_2_0_6_0_3_mean.svg

<?xml version="1.0" encoding="utf-8" standalone="no"?>
<!DOCTYPE svg PUBLIC "-//W3C//DTD SVG 1.1//EN"
  "http://www.w3.org/Graphics/SVG/1.1/DTD/svg11.dtd">
<!-- Created with matplotlib (https://matplotlib.org/) -->
<svg height="345.6pt" version="1.1" viewBox="0 0 460.8 345.6" width="460.8pt" xmlns="http://www.w3.org/2000/svg" xmlns:xlink="http://www.w3.org/1999/xlink">
 <defs>
  <style type="text/css">
*{stroke-linecap:butt;stroke-linejoin:round;}
  </style>
 </defs>
 <g id="figure_1">
  <g id="patch_1">
   <path d="M 0 345.6 
L 460.8 345.6 
L 460.8 0 
L 0 0 
z
" style="fill:#ffffff;"/>
  </g>
  <g id="axes_1">
   <g id="patch_2">
    <path d="M 57.6 307.584 
L 414.72 307.584 
L 414.72 41.472 
L 57.6 41.472 
z
" style="fill:#ffffff;"/>
   </g>
   <g id="matplotlib.axis_1">
    <g id="xtick_1">
     <g id="line2d_1">
      <defs>
       <path d="M 0 0 
L 0 3.5 
" id="m4adbedc461" style="stroke:#000000;stroke-width:0.8;"/>
      </defs>
      <g>
       <use style="stroke:#000000;stroke-width:0.8;" x="73.800255" xlink:href="#m4adbedc461" y="307.584"/>
      </g>
     </g>
     <g id="text_1">
      <text style="font-family:DejaVu Sans;font-size:10px;font-style:normal;font-weight:normal;text-anchor:middle;" transform="rotate(-0, 73.800255, 322.182437)" x="73.800255" y="322.182437">0.0</text>
     </g>
    </g>
    <g id="xtick_2">
     <g id="line2d_2">
      <g>
       <use style="stroke:#000000;stroke-width:0.8;" x="138.744153" xlink:href="#m4adbedc461" y="307.584"/>
      </g>
     </g>
     <g id="text_2">
      <text style="font-family:DejaVu Sans;font-size:10px;font-style:normal;font-weight:normal;text-anchor:middle;" transform="rotate(-0, 138.744153, 322.182437)" x="138.744153" y="322.182437">0.2</text>
     </g>
    </g>
    <g id="xtick_3">
     <g id="line2d_3">
      <g>
       <use style="stroke:#000000;stroke-width:0.8;" x="203.688051" xlink:href="#m4adbedc461" y="307.584"/>
      </g>
     </g>
     <g id="text_3">
      <text style="font-family:DejaVu Sans;font-size:10px;font-style:normal;font-weight:normal;text-anchor:middle;" transform="rotate(-0, 203.688051, 322.182437)" x="203.688051" y="322.182437">0.4</text>
     </g>
    </g>
    <g id="xtick_4">
     <g id="line2d_4">
      <g>
       <use style="stroke:#000000;stroke-width:0.8;" x="268.631949" xlink:href="#m4adbedc461" y="307.584"/>
      </g>
     </g>
     <g id="text_4">
      <text style="font-family:DejaVu Sans;font-size:10px;font-style:normal;font-weight:normal;text-anchor:middle;" transform="rotate(-0, 268.631949, 322.182437)" x="268.631949" y="322.182437">0.6</text>
     </g>
    </g>
    <g id="xtick_5">
     <g id="line2d_5">
      <g>
       <use style="stroke:#000000;stroke-width:0.8;" x="333.575847" xlink:href="#m4adbedc461" y="307.584"/>
      </g>
     </g>
     <g id="text_5">
      <text style="font-family:DejaVu Sans;font-size:10px;font-style:normal;font-weight:normal;text-anchor:middle;" transform="rotate(-0, 333.575847, 322.182437)" x="333.575847" y="322.182437">0.8</text>
     </g>
    </g>
    <g id="xtick_6">
     <g id="line2d_6">
      <g>
       <use style="stroke:#000000;stroke-width:0.8;" x="398.519745" xlink:href="#m4adbedc461" y="307.584"/>
      </g>
     </g>
     <g id="text_6">
      <text style="font-family:DejaVu Sans;font-size:10px;font-style:normal;font-weight:normal;text-anchor:middle;" transform="rotate(-0, 398.519745, 322.182437)" x="398.519745" y="322.182437">1.0</text>
     </g>
    </g>
    <g id="text_7">
     <text style="font-family:DejaVu Sans;font-size:10px;font-style:normal;font-weight:normal;text-anchor:middle;" transform="rotate(-0, 236.16, 335.860562)" x="236.16" y="335.860562">Input Coin's Heads Probability (λ)</text>
    </g>
   </g>
   <g id="matplotlib.axis_2">
    <g id="ytick_1">
     <g id="line2d_7">
      <defs>
       <path d="M 0 0 
L -3.5 0 
" id="m9a5c25d934" style="stroke:#000000;stroke-width:0.8;"/>
      </defs>
      <g>
       <use style="stroke:#000000;stroke-width:0.8;" x="57.6" xlink:href="#m9a5c25d934" y="284.655761"/>
      </g>
     </g>
     <g id="text_8">
      <text style="font-family:DejaVu Sans;font-size:10px;font-style:normal;font-weight:normal;text-anchor:end;" transform="rotate(-0, 50.6, 288.45498)" x="50.6" y="288.45498">0.20</text>
     </g>
    </g>
    <g id="ytick_2">
     <g id="line2d_8">
      <g>
       <use style="stroke:#000000;stroke-width:0.8;" x="57.6" xlink:href="#m9a5c25d934" y="239.521433"/>
      </g>
     </g>
     <g id="text_9">
      <text style="font-family:DejaVu Sans;font-size:10px;font-style:normal;font-weight:normal;text-anchor:end;" transform="rotate(-0, 50.6, 243.320652)" x="50.6" y="243.320652">0.25</text>
     </g>
    </g>
    <g id="ytick_3">
     <g id="line2d_9">
      <g>
       <use style="stroke:#000000;stroke-width:0.8;" x="57.6" xlink:href="#m9a5c25d934" y="194.387104"/>
      </g>
     </g>
     <g id="text_10">
      <text style="font-family:DejaVu Sans;font-size:10px;font-style:normal;font-weight:normal;text-anchor:end;" transform="rotate(-0, 50.6, 198.186323)" x="50.6" y="198.186323">0.30</text>
     </g>
    </g>
    <g id="ytick_4">
     <g id="line2d_10">
      <g>
       <use style="stroke:#000000;stroke-width:0.8;" x="57.6" xlink:href="#m9a5c25d934" y="149.252776"/>
      </g>
     </g>
     <g id="text_11">
      <text style="font-family:DejaVu Sans;font-size:10px;font-style:normal;font-weight:normal;text-anchor:end;" transform="rotate(-0, 50.6, 153.051995)" x="50.6" y="153.051995">0.35</text>
     </g>
    </g>
    <g id="ytick_5">
     <g id="line2d_11">
      <g>
       <use style="stroke:#000000;stroke-width:0.8;" x="57.6" xlink:href="#m9a5c25d934" y="104.118448"/>
      </g>
     </g>
     <g id="text_12">
      <text style="font-family:DejaVu Sans;font-size:10px;font-style:normal;font-weight:normal;text-anchor:end;" transform="rotate(-0, 50.6, 107.917667)" x="50.6" y="107.917667">0.40</text>
     </g>
    </g>
    <g id="ytick_6">
     <g id="line2d_12">
      <g>
       <use style="stroke:#000000;stroke-width:0.8;" x="57.6" xlink:href="#m9a5c25d934" y="58.984119"/>
      </g>
     </g>
     <g id="text_13">
      <text style="font-family:DejaVu Sans;font-size:10px;font-style:normal;font-weight:normal;text-anchor:end;" transform="rotate(-0, 50.6, 62.783338)" x="50.6" y="62.783338">0.45</text>
     </g>
    </g>
    <g id="text_14">
     <text style="font-family:DejaVu Sans;font-size:10px;font-style:normal;font-weight:normal;text-anchor:middle;" transform="rotate(-90, 22.254687, 174.528)" x="22.254687" y="174.528">Simulated Mean / Function Value</text>
    </g>
   </g>
   <g id="line2d_13">
    <path clip-path="url(#pc04641209e)" d="M 73.832727 284.583553 
L 77.112066 277.356296 
L 80.391405 270.25793 
L 83.670744 263.288455 
L 86.950083 256.44787 
L 90.229421 249.736175 
L 93.50876 243.153371 
L 96.788099 236.699457 
L 100.067438 230.374434 
L 103.346777 224.178302 
L 106.626116 218.11106 
L 109.905455 212.172708 
L 113.184793 206.363247 
L 116.464132 200.682677 
L 119.743471 195.130997 
L 123.02281 189.708207 
L 126.302149 184.414308 
L 129.581488 179.249299 
L 132.860826 174.213181 
L 136.140165 169.305954 
L 139.419504 164.527617 
L 142.698843 159.87817 
L 145.978182 155.357614 
L 149.257521 150.965948 
L 152.53686 146.703173 
L 155.816198 142.569289 
L 159.095537 138.564294 
L 162.374876 134.688191 
L 165.654215 130.940978 
L 168.933554 127.322655 
L 172.212893 123.833223 
L 175.492231 120.472681 
L 178.77157 117.24103 
L 182.050909 114.138269 
L 185.330248 111.164399 
L 188.609587 108.31942 
L 191.888926 105.60333 
L 195.168264 103.016132 
L 198.447603 100.557823 
L 201.726942 98.228406 
L 205.006281 96.027879 
L 208.28562 93.956242 
L 211.564959 92.013496 
L 214.844298 90.19964 
L 218.123636 88.514675 
L 221.402975 86.9586 
L 224.682314 85.531416 
L 227.961653 84.233122 
L 231.240992 83.063719 
L 234.520331 82.023206 
L 237.799669 81.111584 
L 241.079008 80.328852 
L 244.358347 79.675011 
L 247.637686 79.15006 
L 250.917025 78.754 
L 254.196364 78.48683 
L 257.475702 78.348551 
L 260.755041 78.339162 
L 264.03438 78.458664 
L 267.313719 78.707056 
L 270.593058 79.084338 
L 273.872397 79.590512 
L 277.151736 80.225575 
L 280.431074 80.98953 
L 283.710413 81.882374 
L 286.989752 82.904109 
L 290.269091 84.054735 
L 293.54843 85.334251 
L 296.827769 86.742658 
L 300.107107 88.279955 
L 303.386446 89.946143 
L 306.665785 91.741221 
L 309.945124 93.665189 
L 313.224463 95.718049 
L 316.503802 97.899798 
L 319.78314 100.210438 
L 323.062479 102.649969 
L 326.341818 105.21839 
L 329.621157 107.915702 
L 332.900496 110.741904 
L 336.179835 113.696996 
L 339.459174 116.780979 
L 342.738512 119.993853 
L 346.017851 123.335617 
L 349.29719 126.806272 
L 352.576529 130.405817 
L 355.855868 134.134252 
L 359.135207 137.991578 
L 362.414545 141.977795 
L 365.693884 146.092902 
L 368.973223 150.336899 
L 372.252562 154.709787 
L 375.531901 159.211566 
L 378.81124 163.842235 
L 382.090579 168.601795 
L 385.369917 173.490245 
L 388.649256 178.507585 
L 391.928595 183.653816 
L 395.207934 188.928938 
L 398.487273 194.33295 
" style="fill:none;stroke:#1f77b4;stroke-linecap:square;stroke-width:1.5;"/>
   </g>
   <g id="line2d_14">
    <path clip-path="url(#pc04641209e)" d="M 73.832727 281.045015 
L 77.112066 284.655761 
L 80.391405 295.488 
L 83.670744 235.910687 
L 86.950083 261.18591 
L 90.229421 235.910687 
L 93.50876 207.024716 
L 96.788099 266.60203 
L 100.067438 230.494567 
L 103.346777 210.635463 
L 106.626116 201.608597 
L 109.905455 225.078448 
L 113.184793 228.689194 
L 116.464132 210.635463 
L 119.743471 158.279642 
L 123.02281 183.554866 
L 126.302149 207.024716 
L 129.581488 208.83009 
L 132.860826 203.41397 
L 136.140165 158.279642 
L 139.419504 152.863522 
L 142.698843 156.474269 
L 145.978182 152.863522 
L 149.257521 163.695761 
L 152.53686 134.809791 
L 155.816198 147.447403 
L 159.095537 131.199045 
L 162.374876 104.118448 
L 165.654215 140.22591 
L 168.933554 136.615164 
L 172.212893 136.615164 
L 175.492231 87.87009 
L 178.77157 111.33994 
L 182.050909 123.977552 
L 185.330248 152.863522 
L 188.609587 116.75606 
L 191.888926 73.427104 
L 195.168264 86.064716 
L 198.447603 98.702328 
L 201.726942 84.259343 
L 205.006281 107.729194 
L 208.28562 75.232478 
L 211.564959 102.313075 
L 214.844298 60.789493 
L 218.123636 66.205612 
L 221.402975 111.33994 
L 224.682314 69.816358 
L 227.961653 66.205612 
L 231.240992 75.232478 
L 234.520331 111.33994 
L 237.799669 89.675463 
L 241.079008 58.984119 
L 244.358347 77.037851 
L 247.637686 114.950687 
L 250.917025 57.178746 
L 254.196364 57.178746 
L 257.475702 80.648597 
L 260.755041 84.259343 
L 264.03438 60.789493 
L 267.313719 58.984119 
L 270.593058 84.259343 
L 273.872397 98.702328 
L 277.151736 57.178746 
L 280.431074 57.178746 
L 283.710413 75.232478 
L 286.989752 60.789493 
L 290.269091 109.534567 
L 293.54843 111.33994 
L 296.827769 96.896955 
L 300.107107 73.427104 
L 303.386446 91.480836 
L 306.665785 127.588299 
L 309.945124 60.789493 
L 313.224463 105.923821 
L 316.503802 104.118448 
L 319.78314 111.33994 
L 323.062479 100.507701 
L 326.341818 118.561433 
L 329.621157 53.568 
L 332.900496 102.313075 
L 336.179835 136.615164 
L 339.459174 100.507701 
L 342.738512 109.534567 
L 346.017851 116.75606 
L 349.29719 134.809791 
L 352.576529 131.199045 
L 355.855868 116.75606 
L 359.135207 91.480836 
L 362.414545 127.588299 
L 365.693884 158.279642 
L 368.973223 156.474269 
L 372.252562 122.172179 
L 375.531901 145.64203 
L 378.81124 143.836657 
L 382.090579 169.111881 
L 385.369917 149.252776 
L 388.649256 199.803224 
L 391.928595 176.333373 
L 395.207934 216.051582 
L 398.487273 185.360239 
" style="fill:none;stroke:#ff7f0e;stroke-linecap:square;stroke-width:1.5;"/>
   </g>
   <g id="patch_3">
    <path d="M 57.6 307.584 
L 57.6 41.472 
" style="fill:none;stroke:#000000;stroke-linecap:square;stroke-linejoin:miter;stroke-width:0.8;"/>
   </g>
   <g id="patch_4">
    <path d="M 414.72 307.584 
L 414.72 41.472 
" style="fill:none;stroke:#000000;stroke-linecap:square;stroke-linejoin:miter;stroke-width:0.8;"/>
   </g>
   <g id="patch_5">
    <path d="M 57.6 307.584 
L 414.72 307.584 
" style="fill:none;stroke:#000000;stroke-linecap:square;stroke-linejoin:miter;stroke-width:0.8;"/>
   </g>
   <g id="patch_6">
    <path d="M 57.6 41.472 
L 414.72 41.472 
" style="fill:none;stroke:#000000;stroke-linecap:square;stroke-linejoin:miter;stroke-width:0.8;"/>
   </g>
   <g id="text_15">
    <text style="font-family:DejaVu Sans;font-size:12px;font-style:normal;font-weight:normal;" transform="translate(81.272813 22.034625)">Simulated Mean for Bernstein 0.2,0.6,0.3 Algorithm</text>
    <text style="font-family:DejaVu Sans;font-size:12px;font-style:normal;font-weight:normal;" transform="translate(132.609375 35.472)">(Wasserstein Distances in Legend)</text>
   </g>
   <g id="legend_1">
    <g id="patch_7">
     <path d="M 229.47 302.584 
L 407.72 302.584 
Q 409.72 302.584 409.72 300.584 
L 409.72 272.22775 
Q 409.72 270.22775 407.72 270.22775 
L 229.47 270.22775 
Q 227.47 270.22775 227.47 272.22775 
L 227.47 300.584 
Q 227.47 302.584 229.47 302.584 
z
" style="fill:#ffffff;opacity:0.8;stroke:#cccccc;stroke-linejoin:miter;"/>
    </g>
    <g id="line2d_15">
     <path d="M 231.47 278.326187 
L 251.47 278.326187 
" style="fill:none;stroke:#1f77b4;stroke-linecap:square;stroke-width:1.5;"/>
    </g>
    <g id="line2d_16"/>
    <g id="text_16">
     <text style="font-family:DejaVu Sans;font-size:10px;font-style:normal;font-weight:normal;text-anchor:start;" transform="rotate(-0, 259.47, 281.826187)" x="259.47" y="281.826187">Bernstein 0.2,0.6,0.3</text>
    </g>
    <g id="line2d_17">
     <path d="M 231.47 293.004312 
L 251.47 293.004312 
" style="fill:none;stroke:#ff7f0e;stroke-linecap:square;stroke-width:1.5;"/>
    </g>
    <g id="line2d_18"/>
    <g id="text_17">
     <text style="font-family:DejaVu Sans;font-size:10px;font-style:normal;font-weight:normal;text-anchor:start;" transform="rotate(-0, 259.47, 296.504312)" x="259.47" y="296.504312">Simul. Mean (WD=0.007165)</text>
    </g>
   </g>
  </g>
 </g>
 <defs>
  <clipPath id="pc04641209e">
   <rect height="266.112" width="357.12" x="57.6" y="41.472"/>
  </clipPath>
 </defs>
</svg>

<svg height="460.8" viewBox="0 0 460.8 345.6" width="614.4" xmlns="http://www.w3.org/2000/svg" xmlns:xlink="http://www.w3.org/1999/xlink"><defs><style>*{stroke-linecap:butt;stroke-linejoin:round}</style></defs><g id="figure_1"><path d="M0 345.6h460.8V0H0z" fill="#fff" id="patch_1"/><g id="axes_1"><path d="M57.6 307.584h357.12V41.472H57.6z" fill="#fff" id="patch_2"/><g id="matplotlib.axis_1"><g id="xtick_1"><g id="line2d_1"><defs><path d="M0 0v3.5" id="m4adbedc461" stroke="#000" stroke-width=".8"/></defs><use x="73.8" xlink:href="#m4adbedc461" y="307.584" stroke="#000" stroke-width=".8"/></g><text x="73.8" y="322.182" font-family="DejaVu Sans" font-size="10" font-weight="400" text-anchor="middle" id="text_1">0.0</text></g><g id="xtick_2"><use x="138.744" xlink:href="#m4adbedc461" y="307.584" stroke="#000" stroke-width=".8" id="line2d_2"/><text x="138.744" y="322.182" font-family="DejaVu Sans" font-size="10" font-weight="400" text-anchor="middle" id="text_2">0.2</text></g><g id="xtick_3"><use x="203.688" xlink:href="#m4adbedc461" y="307.584" stroke="#000" stroke-width=".8" id="line2d_3"/><text x="203.688" y="322.182" font-family="DejaVu Sans" font-size="10" font-weight="400" text-anchor="middle" id="text_3">0.4</text></g><g id="xtick_4"><use x="268.632" xlink:href="#m4adbedc461" y="307.584" stroke="#000" stroke-width=".8" id="line2d_4"/><text x="268.632" y="322.182" font-family="DejaVu Sans" font-size="10" font-weight="400" text-anchor="middle" id="text_4">0.6</text></g><g id="xtick_5"><use x="333.576" xlink:href="#m4adbedc461" y="307.584" stroke="#000" stroke-width=".8" id="line2d_5"/><text x="333.576" y="322.182" font-family="DejaVu Sans" font-size="10" font-weight="400" text-anchor="middle" id="text_5">0.8</text></g><g id="xtick_6"><use x="398.52" xlink:href="#m4adbedc461" y="307.584" stroke="#000" stroke-width=".8" id="line2d_6"/><text x="398.52" y="322.182" font-family="DejaVu Sans" font-size="10" font-weight="400" text-anchor="middle" id="text_6">1.0</text></g><text x="236.16" y="335.861" font-family="DejaVu Sans" font-size="10" font-weight="400" text-anchor="middle" id="text_7">Input Coin&apos;s Heads Probability (λ)</text></g><g id="matplotlib.axis_2"><g id="ytick_1"><g id="line2d_7"><defs><path d="M0 0h-3.5" id="m9a5c25d934" stroke="#000" stroke-width=".8"/></defs><use x="57.6" xlink:href="#m9a5c25d934" y="284.656" stroke="#000" stroke-width=".8"/></g><text x="50.6" y="288.455" font-family="DejaVu Sans" font-size="10" font-weight="400" text-anchor="end" id="text_8">0.20</text></g><g id="ytick_2"><use x="57.6" xlink:href="#m9a5c25d934" y="239.521" stroke="#000" stroke-width=".8" id="line2d_8"/><text x="50.6" y="243.321" font-family="DejaVu Sans" font-size="10" font-weight="400" text-anchor="end" id="text_9">0.25</text></g><g id="ytick_3"><use x="57.6" xlink:href="#m9a5c25d934" y="194.387" stroke="#000" stroke-width=".8" id="line2d_9"/><text x="50.6" y="198.186" font-family="DejaVu Sans" font-size="10" font-weight="400" text-anchor="end" id="text_10">0.30</text></g><g id="ytick_4"><use x="57.6" xlink:href="#m9a5c25d934" y="149.253" stroke="#000" stroke-width=".8" id="line2d_10"/><text x="50.6" y="153.052" font-family="DejaVu Sans" font-size="10" font-weight="400" text-anchor="end" id="text_11">0.35</text></g><g id="ytick_5"><use x="57.6" xlink:href="#m9a5c25d934" y="104.118" stroke="#000" stroke-width=".8" id="line2d_11"/><text x="50.6" y="107.918" font-family="DejaVu Sans" font-size="10" font-weight="400" text-anchor="end" id="text_12">0.40</text></g><g id="ytick_6"><use x="57.6" xlink:href="#m9a5c25d934" y="58.984" stroke="#000" stroke-width=".8" id="line2d_12"/><text x="50.6" y="62.783" font-family="DejaVu Sans" font-size="10" font-weight="400" text-anchor="end" id="text_13">0.45</text></g><text transform="rotate(-90 22.255 174.528)" x="22.255" y="174.528" font-family="DejaVu Sans" font-size="10" font-weight="400" text-anchor="middle" id="text_14">Simulated Mean / Function Value</text></g><path clip-path="url(#pc04641209e)" d="M73.833 284.584l3.28-7.228 3.278-7.098 3.28-6.97 3.28-6.84 3.278-6.712 3.28-6.583 3.28-6.454 3.278-6.325 3.28-6.196 3.28-6.067 3.278-5.938 3.28-5.81 3.28-5.68 3.278-5.552 3.28-5.423 3.28-5.294 3.278-5.165 3.28-5.036 3.28-4.907 3.279-4.778 3.279-4.65 3.28-4.52 3.279-4.392 3.279-4.263 3.28-4.134 3.279-4.005 3.279-3.876 3.28-3.747 3.279-3.618 3.279-3.49 3.28-3.36 3.279-3.232 3.279-3.103 3.28-2.974 3.279-2.845 3.279-2.716 3.28-2.587 3.279-2.458 3.279-2.33 3.28-2.2 3.279-2.072 3.279-1.943 3.28-1.813 3.279-1.685 3.279-1.556 3.28-1.428 3.279-1.298 3.279-1.17 3.28-1.04 3.279-.911 3.279-.783 3.28-.654 3.279-.525 3.279-.396 3.28-.267 3.279-.138 3.279-.01 3.28.12 3.279.248 3.28.377 3.278.507 3.28.635 3.28.764 3.278.892 3.28 1.022 3.28 1.15 3.278 1.28 3.28 1.409 3.28 1.537 3.278 1.666 3.28 1.795 3.28 1.924 3.278 2.053 3.28 2.182 3.28 2.31 3.278 2.44 3.28 2.568 3.28 2.698 3.278 2.826 3.28 2.955 3.28 3.084 3.279 3.213 3.279 3.342 3.28 3.47 3.279 3.6 3.279 3.728 3.28 3.858 3.279 3.986 3.279 4.115 3.28 4.244 3.279 4.373 3.279 4.502 3.28 4.63 3.279 4.76 3.279 4.888 3.28 5.018 3.279 5.146 3.279 5.275 3.28 5.404" fill="none" stroke="#1f77b4" stroke-linecap="square" stroke-width="1.5" id="line2d_13"/><path clip-path="url(#pc04641209e)" d="M73.833 281.045l3.28 3.61 3.278 10.833 3.28-59.577 3.28 25.275 3.278-25.275 3.28-28.886 3.28 59.577 3.278-36.107 3.28-19.86 3.28-9.026 3.278 23.47 3.28 3.61 3.28-18.054 3.278-52.355 3.28 25.275 3.28 23.47 3.278 1.805 3.28-5.416 3.28-45.134 3.279-5.416 3.279 3.61 3.28-3.61 3.279 10.832 3.279-28.886 3.28 12.637 3.279-16.248 3.279-27.08 3.28 36.107 3.279-3.61h3.279l3.28-48.746 3.279 23.47 3.279 12.638 3.28 28.886 3.279-36.108 3.279-43.329 3.28 12.638 3.279 12.637 3.279-14.443 3.28 23.47 3.279-32.497 3.279 27.081 3.28-41.524 3.279 5.417 3.279 45.134 3.28-41.524 3.279-3.61 3.279 9.026 3.28 36.108 3.279-21.665 3.279-30.69 3.28 18.053 3.279 37.913 3.279-57.772h3.28l3.279 23.47 3.279 3.61 3.28-23.47 3.279-1.805 3.28 25.275 3.278 14.443 3.28-41.523h3.28l3.278 18.053 3.28-14.443 3.28 48.746 3.278 1.805 3.28-14.443 3.28-23.47 3.278 18.054 3.28 36.107 3.28-66.799 3.278 45.135 3.28-1.806 3.28 7.222 3.278-10.832 3.28 18.053 3.28-64.993 3.278 48.745 3.28 34.302 3.28-36.107 3.279 9.027 3.279 7.221 3.28 18.054 3.279-3.611 3.279-14.443 3.28-25.275 3.279 36.107 3.279 30.692 3.28-1.806 3.279-34.302 3.279 23.47 3.28-1.805 3.279 25.275 3.279-19.86 3.28 50.551 3.279-23.47 3.279 39.719 3.28-30.692" fill="none" stroke="#ff7f0e" stroke-linecap="square" stroke-width="1.5" id="line2d_14"/><path d="M57.6 307.584V41.472" fill="none" stroke="#000" stroke-linecap="square" stroke-width=".8" id="patch_3"/><path d="M414.72 307.584V41.472" fill="none" stroke="#000" stroke-linecap="square" stroke-width=".8" id="patch_4"/><path d="M57.6 307.584h357.12" fill="none" stroke="#000" stroke-linecap="square" stroke-width=".8" id="patch_5"/><path d="M57.6 41.472h357.12" fill="none" stroke="#000" stroke-linecap="square" stroke-width=".8" id="patch_6"/><g id="text_15" font-family="DejaVu Sans" font-size="12" font-weight="400"><text transform="translate(81.273 22.035)">Simulated Mean for Bernstein 0.2,0.6,0.3 Algorithm</text><text transform="translate(132.61 35.472)">(Wasserstein Distances in Legend)</text></g><g id="legend_1"><path d="M229.47 302.584h178.25q2 0 2-2v-28.356q0-2-2-2H229.47q-2 0-2 2v28.356q0 2 2 2z" fill="#fff" opacity=".8" stroke="#ccc" id="patch_7"/><path d="M231.47 278.326h20" fill="none" stroke="#1f77b4" stroke-linecap="square" stroke-width="1.5" id="line2d_15"/><text x="259.47" y="281.826" font-family="DejaVu Sans" font-size="10" font-weight="400" id="text_16">Bernstein 0.2,0.6,0.3</text><path d="M231.47 293.004h20" fill="none" stroke="#ff7f0e" stroke-linecap="square" stroke-width="1.5" id="line2d_17"/><text x="259.47" y="296.504" font-family="DejaVu Sans" font-size="10" font-weight="400" id="text_17">Simul. Mean (WD=0.007165)</text></g></g></g><defs><clipPath id="pc04641209e"><path d="M57.6 41.472h357.12v266.112H57.6z"/></clipPath></defs></svg>
